X:1
T:De ceans iusques
T:Clément Janequin
T:Source : Livre VIII de 25 chansons nouvelles à 4 parties---Paris---N.du Chemin---1550. Editor : André Vierendeels (21/03/18) Notes : Original clefs : G2, C2, C3, F3 Original note values have been halved Original note values have been quartered in 3-beat measures Editorial accidentals above the staff 
T:De ceans iusques
T:©
T:©
T:©
T:©
T:©
T:©
T:©
C:Clément Janequin
Z:©
%%score [ 1 2 [ 3 4 ] ]
L:1/8
Q:1/4=120
M:2/2
K:F
V:1 treble nm="Soprano" snm="S"
V:2 treble nm="Alto" snm="A"
V:3 treble-8 nm="Tenor 1" snm="T 1"
V:4 treble-8 nm="Tenor 2" snm="T 2"
V:1
 z4 d2 d2 | e2 e2 d2 f2 | e2 d3 c c2 | d4 g2 f2 | e2 d4 c2 | d2 A2 A2 c2 | c2 B2 A3 c | B2 B2 A4 | %8
w: De ce-|ans ius- ques chez|m'a- my- * *|e, bien sçay|com- bien y|a de pas, bien|sçay com- bien y|a de pas,|
 z4 d2 d2 | e2 e2 d2 f2 | e2 d3 c c2 | d4 g2 f2 | e2 d4 c2 | d2 A2 A2 c2 | c2 B2 A3 c | B2 B2 A4 | %16
w: cent fois|les ay faictz en|ma vi- * *|e: mais onc-|ques iours ie|n'en fuz las, mais|onc- ques iours ie|n'en fuz las,|
[M:3/4] d4 d2 | d4 d2 |[M:2/2] c2 d2 c2 f2 | e2 d4 c2 | d4 z4 | z2 d2 g2 g2 | f3 e dc B2 | %23
w: pleu- ve,|ven- te,|il m'en chault, il|m'en chault _|pas,|en tous temps|la voy- e m'est bel-|
 A2 dd/d/ cBAG | FFBA GGdd/d/ | dcBA GGdd/d/ | dcBA GG F2 | Gdec defg | e2 dd ec f2 | d2 cc fe d2 | %30
w: le, et vo- le com- me'u- ne'ar- ron-|del- le, com- me'u- ne'ar- ron- del- le, et|vo- le com- me'u- ne'ar- ron- del- le, et|vo- le com- me'u- ne'ar- ron- del-|le, et vo- le com- me'u- ne'ar- ron-|del- le, et vo- le, vo-|le com- me'u- ne'a- ron- del-|
 ccfd g2 fd | ecfd g2 fd | dcBA GGdd/d/ | dcBA GGdd/d/ | ddcc BB A2- | AG G4 F2 | G8 |] %37
w: le, et vo- le, vo- le et|vo- le, vo- le, vo- le, et|vo- le com- me'u- ne'a- ron- del- le, et|vo- le com- me'u- ne'a- ron- del- le, et|vo- le com- me'u- ne'a- ron del-||le.|
V:2
 z4 B2 B2 | c4 A3 B | c2 B2 A4 | A2 A2 G2 A2 | c2 G2 A2 A2 | F3 E/D/ E4- | E2 G2 E3 F | %7
w: De ce-|ans ius- ques|chez m'a- my-|e, bien sçay com-|bien y a de|pas, _ _ _|_ com- bien y|
 G2 G2 F3 G/A/ | B4 B2 B2 | c4 A3 B | c2 B2 A4 | A2 A2 G2 A2 | c2 G2 A2 A2 | F3 E/D/ E4- | %14
w: a de pas, _ _|_ cent fois|les ay faictz|en ma vi-|e: mais onc- que|iours ie n'en fuz|las, _ _ _|
 E2 G2 EDEF | G2 G2 F4 |[M:3/4] A4 A2 | B4 B2 |[M:2/2] AA F2 AAAB | cGBG AA A2 | F4 F4 | %21
w: _ ie n'en _ _ _|_ fuz las,|pleu- ve,|ven- te'il|ne m'en chault, pleu- ve, ven- t'il|ne m'en chault, ,il ne m'en chault|pas, en|
 B3 A GFEE | D4 D4 | z2 D2 GFEE | D3 D DEFF/F/ | GEDD DEFF/F/ | GE D2 D z2 A | BGGA BcAG | z8 | %29
w: tous temps la voy- e m'est|bel- le,|et vo- le, vo- le|com- me'u- ne'ar- ron- del- le, et|vo- le com- me'u- ne'ar- ron- del- le, et|vo- le, vo- le, et|vo- le com- me'u- ne'ar- ron- del- le||
 z FAA AAAB | A2 AF BBAB | GGFF C2 DF | GEDD DEFF/F/ | GEDD DEFF/F/ | G2 E2 D2 D2 | D2 _E2 D4 | %36
w: et vo- le com- me'u- ne'ar- ron-|del- le, et vo- le, vo- le|com- me'u- ne'ar- ron- del- le, et|vo- le com- me'u- ne'ar- ron- del- le, et|vo- le com- me'u- ne'arr- ron- del- le, et|vo- le com- me'u-|ne'ar- ron- del-|
"^#" D8 |] %37
w: le.|
V:3
 d2 d2 g4 | g2 g2 f2 d2 | g2 fe/d/ e4 | d2 f2 e2 d2 | g2 z g f2 e2 | d3 c/B/ AGAB | c2 d2 d2 c2 | %7
w: De ce- ans|ius- ques chez m'a-|my- * * * *|e, bien sçay com-|bien bien sçay com-|bien- * * * * * *|* y a de|
 d4 z4 | d2 d2 g4 | g2 g2 f2 d2 | g2 fe/d/ e4 | d2 f2 e2 d2 | g2 z g f2 e2 | d3 c/B/ AGAB | %14
w: pas,|cent fois les|ay faictz en ma|vi- * * * *|e: mais onc- ques|iours, mais onc- ques|iours _ _ _ _ _ _|
 c2 d2 d2 c2 | d8 |[M:3/4] f4 f2 | f4 f2 |[M:2/2] f2 d2 e2 d2 | gggd ff e2 | d2 d2 f3 e | dcBB c4 | %22
w: _ ie n'en fuz|las,|pleu- ve,|ven- te,|il ne m'en chault|pas, il ne m'en chault pas, en|_ tous temps _|la voy- e m'est bel-|
 A4 z2 d2 | f3 f edcB | AAGA BcAA/A/ | BGGA BcAA/A/ | BGGA Bc A2 | G2 z2 z4 | z efd ge a2 | %29
w: le, et|vo- le com- me'u- ne'ar- ron-|del- le, com- me'u- ne'ar- ron- del- le, et|vo- le com- me'u- ne'ar- ron- del- le, et|vo- le com- me'u- ne'ar- ron- del-|le,|et vo- le, vo- le, vo-|
 fdfe defg | e2 d2 z GdB | ce d2 G2 z A | BGGA BcAA/A/ | BGGA BcAA/A/ | B2 G2 G2 A2 | B2 c2 A4 | %36
w: le, et vo- le com- me'u- ne'a- ron-|del- le, et vo- le,|vo- le, vo- le, et|vo- le com- me'u- ne'ar- ron- del- le, et|vo- le com- me'u- ne'ar- ron- del- le, et|vo- le com- me'u-|ne'a- ron- del-|
 G8 |] %37
w: le.|
V:4
 z8 | c2 c2 d2 dd | c2 d2 A4 | D4 z2 z e | c2 B2 AAAA | D2 d2 c3 B | A2 G2 A2 A2 | G2 GG d2 d2 | %8
w: |De ce- ans chez m'a-|my- * *|e, bien|sçay com- bien y a de|pas, com- bien _|_ y a de|pas, cent fois les ay|
 G4 z4 | c2 c2 d2 dd | c2 d2 A4 | D4 z2 z d | c2 B2 AAAA | D2 d2 c3 B | A2 G2 A2 A2 | G4 z4 | %16
w: faictz|cent fois les ay faictz|en ma vi-|e: mais|onc- ques iours ie n'en fuz|las, mais onc- ques|iours ie n'en fuz|las,|
[M:3/4] d4 d2 | B4 B2 |[M:2/2] F2 B2 A2 D2 | ccGB AA A2 | D4 z2 D2 | G3 F EDCC | D2 DD G3 G | %23
w: pleu- ve,|ven- te'il|ne m'en chault pas,|pleu- ve, ven- te'il ne m'en chault|pas, en|tous temps la voy- e m'est|bel- le, et vo- le|
 FEDB, C2 CC | DDGF GCDD/D/ | GCGF GCDD/D/ | GCGF GC D2 | G2 z2 z2 z G | ccBB c2 FF | BBAA dcdG | %30
w: com- me'u- ne'ar- ron- del- le, et|vo- le com- me'u- ne'ar- ron- del- le, et|vo- le com- me'u- ne'ar- ron- del- le, et|vo- le com- me'u- ne'ar- ron- del-|le, et|vo- le, vo- le, vo- le, et|vo- le vo- le com- me'u- ne'ar- ron|
 A2 D2 z4 | z CDB, E2 DD | GCGF GCDD/D/ | GCGF GCDD/D/ | GGCC GGFF | G2 C2 D4 | G8 |] %37
w: del- le,|et vo- le, vol- le, et|vo- le com- me'u- ne'ar- ron- del- le, et|vo- le com- me'u- ne'ar- ron- del- le, et|vo- le, vo- le, vo- le com- me'u-|ne'ar- ron- del-|le.|

